lib/preview_tmp/nrk-logo-nrk-nyheter-title-below-on-light.svg

<svg width="75" height="39" viewBox="0 0 75 39" fill="none" xmlns="http://www.w3.org/2000/svg">
<path d="M0 14.3333V0.334605H4.59339V14.3333H0ZM10.8428 2.56258L13.4844 14.3333H8.45737L5.30307 0.334605H8.12254C8.76907 0.326214 9.39641 0.554123 9.88691 0.975455C10.3782 1.37911 10.7158 1.93948 10.8428 2.56258ZM14.1744 14.3333V0.334605H18.7678V14.3333H14.1744ZM22.2372 5.65812C21.7422 5.66294 21.2552 5.53343 20.828 5.28346C20.4064 5.03981 20.0563 4.68962 19.8127 4.26803C19.5624 3.84072 19.4329 3.35355 19.4378 2.85837C19.4321 2.3662 19.5618 1.88194 19.8127 1.4585C20.0589 1.04149 20.4086 0.695109 20.828 0.452939C21.2553 0.203253 21.7423 0.073767 22.2372 0.0782812C22.7292 0.0729823 23.2133 0.202584 23.6369 0.452939C24.0521 0.697232 24.3981 1.04332 24.6424 1.4585C24.893 1.88206 25.0226 2.36624 25.0172 2.85837C25.0218 3.35352 24.8923 3.8406 24.6424 4.26803C24.4007 4.68777 24.0542 5.03766 23.6369 5.28346C23.2133 5.53431 22.7289 5.66394 22.2366 5.65812H22.2372ZM25.7269 14.3333V0.334605H30.3207V14.3333H25.7269ZM36.136 7.98461C36.1489 7.99819 36.2475 8.1592 36.4317 8.46765C36.6159 8.7761 36.8558 9.17046 37.1513 9.65067C37.447 10.1307 37.759 10.64 38.0874 11.1787C38.4157 11.7174 38.7247 12.2268 39.0143 12.7067C39.3028 13.1867 39.6313 13.7289 40 14.3333H34.9531C34.6375 13.8207 34.3515 13.3574 34.0952 12.9433C33.8389 12.5293 33.5665 12.0823 33.2778 11.6026C32.9884 11.1233 32.7024 10.6566 32.4196 10.2027C32.1368 9.74879 31.8938 9.35121 31.6905 9.0099C31.4863 8.66837 31.3449 8.43831 31.2663 8.31979C31.0713 8.02568 30.9559 7.68601 30.9315 7.33397C30.951 6.99609 31.0597 6.66947 31.2466 6.3873C31.3254 6.25585 31.47 6.0225 31.6803 5.68732C31.8906 5.35214 32.137 4.95456 32.4196 4.49451C32.7021 4.03446 32.9882 3.56454 33.2778 3.08477C33.5674 2.605 33.8398 2.15477 34.0952 1.73416C34.3519 1.31398 34.6379 0.84735 34.9531 0.334284H40L36.0962 6.70275C35.9754 6.89183 35.9073 7.10974 35.8991 7.33397C35.9121 7.56938 35.9942 7.7957 36.1353 7.98461H36.136Z" fill="#0A2343"/>
<path d="M10.0282 30.9952L1.60534 20.3335H0V34.3473H1.86299V23.6797L10.3061 34.3473H11.9113V20.3335H10.0286L10.0282 30.9952Z" fill="#1767CE"/>
<path d="M21.7612 24.3798L21.7457 31.7716C21.6013 31.8555 21.4573 31.936 21.3163 32.0084C21.0755 32.1319 20.8273 32.2406 20.5731 32.3338C20.3323 32.4233 20.0834 32.4894 19.8299 32.5311C19.5711 32.5717 19.3093 32.5916 19.0473 32.5904C18.6418 32.6066 18.239 32.518 17.878 32.3334C17.5651 32.1528 17.3238 31.8708 17.1943 31.5344C17.0299 31.1029 16.9523 30.6433 16.966 30.182V24.083L14.9446 24.3791V30.5764C14.9204 31.3247 15.0486 32.0701 15.3214 32.7677C15.5404 33.3115 15.9436 33.7619 16.4611 34.0407C17.049 34.3282 17.6989 34.467 18.3534 34.445C18.9 34.4487 19.4431 34.3587 19.959 34.1789C20.4679 33.9976 20.9483 33.745 21.3856 33.4286C21.5062 33.342 21.6254 33.2502 21.7443 33.1548L21.7424 34.0102C21.7424 34.9971 21.5111 35.7471 21.0487 36.2603C20.5863 36.7735 19.8002 37.0301 18.6903 37.0301C18.3862 37.0301 18.0757 37.0168 17.7588 36.9903C17.4424 36.9642 17.128 36.9181 16.8174 36.8524C16.5069 36.7866 16.193 36.7044 15.8757 36.6057C15.5584 36.507 15.2413 36.3919 14.9244 36.2603L15.1427 38.0169C15.407 38.1218 15.6843 38.2172 15.9748 38.3031C16.2652 38.3891 16.5625 38.4615 16.8666 38.5203C17.1705 38.5795 17.4876 38.6255 17.8179 38.6584C18.1482 38.6913 18.4853 38.7077 18.829 38.7074C19.5459 38.7195 20.2596 38.6095 20.9394 38.3821C21.5146 38.188 22.044 37.8789 22.4951 37.4738C22.9164 37.0879 23.2451 36.6124 23.4567 36.0826C23.6808 35.5105 23.7918 34.9006 23.7837 34.2865L23.7635 24.0817L21.7612 24.3798Z" fill="#1767CE"/>
<path d="M34.4841 24.4781C33.9018 24.1835 33.254 24.041 32.6013 24.0639C32.0196 24.0638 31.4414 24.1536 30.8873 24.3301C30.3242 24.5084 29.7876 24.7607 29.2916 25.0805C29.1423 25.1762 28.998 25.2778 28.8556 25.3861V19.4453L26.8341 19.7414V34.3474H28.8556V26.7628C29.0122 26.6773 29.1727 26.5957 29.3408 26.5213C29.6213 26.398 29.9094 26.2925 30.2033 26.2055C30.4862 26.1218 30.7741 26.0559 31.0654 26.0081C31.3372 25.9631 31.6122 25.94 31.8878 25.9391C32.2047 25.9324 32.5203 25.9825 32.8193 26.0871C33.0715 26.1778 33.2966 26.3306 33.4737 26.5312C33.6555 26.7489 33.7841 27.0056 33.8495 27.2812C33.9346 27.6299 33.9748 27.988 33.9691 28.3467V34.347H35.9903V27.9322C36.0168 27.1839 35.8884 26.4382 35.6134 25.7413C35.3897 25.2062 34.992 24.7613 34.4841 24.4781Z" fill="#1767CE"/>
<path d="M46.6728 25.5542C46.2923 25.0631 45.7903 24.6787 45.2159 24.4387C44.5778 24.1795 43.8936 24.052 43.2046 24.064C42.5103 24.0522 41.8215 24.1867 41.1831 24.4587C40.6025 24.7119 40.0849 25.0891 39.667 25.5637C39.2365 26.0626 38.9128 26.6436 38.7154 27.2714C38.4895 27.9897 38.3793 28.7392 38.3887 29.4919C38.3606 30.4429 38.5608 31.3869 38.973 32.2453C39.3497 32.9891 39.9581 33.5916 40.7071 33.9625C41.5861 34.3749 42.5505 34.5744 43.5217 34.5448C43.9888 34.5486 44.4557 34.5189 44.9186 34.456C45.3055 34.4004 45.6868 34.3112 46.0582 34.1895C46.4264 34.0663 46.7844 33.9145 47.1287 33.7355L47.2671 32.2157C47.0161 32.3078 46.7617 32.3999 46.5041 32.492C46.2464 32.5841 45.9789 32.6664 45.7014 32.7387C45.4216 32.8118 45.1367 32.8645 44.8492 32.8963C44.5597 32.9294 44.2686 32.946 43.9772 32.946C43.4569 32.9544 42.9377 32.898 42.4314 32.7782C42.023 32.6809 41.6451 32.4842 41.3318 32.2058C41.015 31.9055 40.7827 31.5279 40.6579 31.1104C40.5284 30.6876 40.4557 30.2495 40.4415 29.8077H47.604C47.7015 28.9913 47.6647 28.1645 47.495 27.3599C47.3556 26.7057 47.0751 26.0896 46.6728 25.5542ZM41.6786 26.0275C42.1436 25.7465 42.6805 25.6061 43.2241 25.6232C43.7685 25.5961 44.306 25.7526 44.7501 26.0674C45.1448 26.3811 45.4266 26.814 45.5528 27.301C45.6516 27.6611 45.7003 28.033 45.6975 28.4063H40.4852C40.522 28.0127 40.6065 27.625 40.7369 27.2516C40.9061 26.7511 41.2373 26.3205 41.6786 26.0275Z" fill="#1767CE"/>
<path d="M55.3039 32.7581L54.9669 32.8177C54.8588 32.8369 54.7496 32.85 54.6399 32.8572C54.5339 32.8641 54.4348 32.8667 54.3426 32.8667C54.0389 32.8751 53.7373 32.8143 53.4607 32.689C53.2228 32.577 53.0255 32.3944 52.8959 32.1663C52.7571 31.9088 52.6887 31.6196 52.6977 31.3275V25.8601H55.4921L55.7101 24.281H52.6977V21.1621L50.6762 21.873V24.281H49.1501L48.9318 25.8601H50.6762V31.742C50.6672 32.1342 50.7276 32.5249 50.8546 32.8963C50.9565 33.1903 51.1147 33.4619 51.3203 33.696C51.5089 33.9044 51.7382 34.0723 51.9942 34.1894C52.2562 34.3091 52.5325 34.3952 52.8163 34.4457C53.0974 34.4975 53.3826 34.5239 53.6684 34.5247C53.8798 34.5247 54.0881 34.5182 54.2931 34.5052C54.4981 34.4923 54.6864 34.4725 54.8579 34.4457C55.0293 34.4194 55.1915 34.3898 55.3435 34.3572C55.4954 34.3246 55.6239 34.2947 55.73 34.2681L55.8488 32.6302C55.7717 32.6598 55.6921 32.6829 55.611 32.6992C55.5182 32.7186 55.4158 32.7387 55.3039 32.7581Z" fill="#1767CE"/>
<path d="M65.3024 25.5542C64.9219 25.0631 64.4199 24.6788 63.8457 24.4387C63.2075 24.1795 62.5232 24.052 61.8341 24.064C61.1399 24.0523 60.451 24.1868 59.8126 24.4587C59.232 24.7119 58.7144 25.0892 58.2964 25.5637C57.8661 26.0625 57.5425 26.6435 57.3452 27.271C57.1193 27.9894 57.0091 28.7388 57.0185 29.4915C56.9905 30.4426 57.1908 31.3865 57.6028 32.245C57.9795 32.9888 58.5879 33.5913 59.337 33.9622C60.216 34.3745 61.1804 34.574 62.1515 34.5444C62.6187 34.5483 63.0855 34.5186 63.5484 34.4556C63.9354 34.4 64.3168 34.3108 64.6883 34.1892C65.0564 34.0661 65.4143 33.9143 65.7585 33.7352L65.8973 32.2154C65.646 32.3075 65.3916 32.3996 65.1339 32.4917C64.8763 32.5838 64.6088 32.666 64.3315 32.7384C64.0517 32.8115 63.7669 32.8641 63.4794 32.896C63.1899 32.9291 62.8987 32.9457 62.6073 32.9457C62.0869 32.954 61.5675 32.8977 61.0612 32.7779C60.6528 32.6804 60.275 32.4838 59.9615 32.2055C59.6449 31.905 59.4127 31.5274 59.2878 31.1101C59.1583 30.6873 59.0856 30.2492 59.0717 29.8074H66.2338C66.3314 28.991 66.2947 28.1641 66.1248 27.3595C65.9853 26.7055 65.7047 26.0895 65.3024 25.5542ZM60.308 26.0275C60.7731 25.7465 61.3101 25.606 61.8539 25.6232C62.3982 25.5962 62.9359 25.7527 63.3799 26.0674C63.7746 26.3811 64.0561 26.8141 64.1823 27.301C64.2815 27.661 64.3301 28.033 64.3269 28.4063H59.1149C59.1517 28.0127 59.2361 27.625 59.3663 27.2516C59.5357 26.7511 59.8669 26.3206 60.308 26.0275Z" fill="#1767CE"/>
<path d="M72.8526 24.2117C72.482 24.3106 72.1281 24.4636 71.8025 24.6657C71.4643 24.8758 71.1516 25.1242 70.8707 25.4058C70.8241 25.4522 70.7786 25.5045 70.732 25.5535V24.0831L68.7104 24.3791V34.3467H70.732V26.8901C70.8824 26.7857 71.0379 26.6889 71.198 26.6C71.3963 26.4912 71.6016 26.3956 71.8124 26.3137C72.0168 26.2343 72.2248 26.1653 72.4367 26.1065C72.6541 26.0461 72.876 26.0032 73.1003 25.9782C73.3406 25.9517 73.5826 25.945 73.824 25.9581L74.0618 24.1031C73.6554 24.074 73.2471 24.1107 72.8526 24.2117Z" fill="#1767CE"/>
</svg>

<svg xmlns="http://www.w3.org/2000/svg" viewBox="0 0 75 39"><path fill="#0A2343" d="M0 14.333V.335h4.593v13.998H0Zm10.843-11.77 2.641 11.77H8.457L5.303.335h2.82a2.655 2.655 0 0 1 1.764.64c.491.404.829.964.956 1.588Zm3.331 11.77V.335h4.594v13.998h-4.594Zm8.063-8.675a2.738 2.738 0 0 1-1.409-.375 2.778 2.778 0 0 1-1.015-1.015 2.735 2.735 0 0 1-.375-1.41 2.685 2.685 0 0 1 .375-1.4A2.812 2.812 0 0 1 23.637.454c.415.244.761.59 1.005 1.005.251.424.38.908.375 1.4.005.496-.125.983-.375 1.41a2.8 2.8 0 0 1-1.005 1.015c-.424.251-.908.38-1.4.375Zm3.49 8.675V.335h4.594v13.998h-4.594Zm10.409-6.348c.013.013.111.174.296.483.184.308.424.702.72 1.183a386.846 386.846 0 0 1 1.862 3.056c.289.48.617 1.022.986 1.626h-5.047l-.858-1.39c-.256-.414-.529-.86-.817-1.34-.29-.48-.576-.946-.858-1.4a71.148 71.148 0 0 1-.73-1.193 21.112 21.112 0 0 0-.424-.69 2.04 2.04 0 0 1-.334-.986c.019-.338.128-.665.315-.947.078-.131.223-.364.433-.7a216.7 216.7 0 0 0 1.598-2.603l.817-1.35.858-1.4H40l-3.904 6.369c-.12.189-.189.407-.197.631.013.235.095.462.236.65h.001Z"/><path fill="#1767CE" d="M10.028 30.995 1.605 20.333H0v14.014h1.863V23.68l8.443 10.667h1.605V20.333H10.03v10.662ZM21.761 24.38l-.015 7.392a9.51 9.51 0 0 1-.43.236c-.24.124-.489.233-.743.326-.24.09-.49.155-.743.197-.259.04-.52.06-.783.06a2.362 2.362 0 0 1-1.169-.258 1.577 1.577 0 0 1-.684-.799 3.506 3.506 0 0 1-.228-1.352v-6.099l-2.021.296v6.197a5.526 5.526 0 0 0 .376 2.192c.22.544.623.994 1.14 1.273a4.002 4.002 0 0 0 1.892.404 4.78 4.78 0 0 0 1.606-.266c.509-.181.99-.434 1.427-.75.12-.087.24-.179.358-.274l-.002.855c0 .987-.23 1.737-.693 2.25-.463.514-1.249.77-2.359.77-.304 0-.614-.013-.931-.04a7.547 7.547 0 0 1-.942-.138 10.997 10.997 0 0 1-1.893-.592l.219 1.757a9.746 9.746 0 0 0 2.675.641c.33.033.667.05 1.011.05a6.317 6.317 0 0 0 2.11-.326 4.465 4.465 0 0 0 1.556-.908c.421-.386.75-.862.962-1.391a4.752 4.752 0 0 0 .327-1.797l-.02-10.204-2.003.298ZM34.484 24.478a3.87 3.87 0 0 0-1.883-.414c-.581 0-1.16.09-1.714.266a6.648 6.648 0 0 0-2.031 1.056v-5.94l-2.022.295v14.606h2.022v-7.584a6.503 6.503 0 0 1 1.347-.558c.283-.083.571-.15.862-.197.272-.045.547-.068.823-.069.317-.007.632.044.931.148.252.09.478.244.655.444.182.218.31.475.376.75.085.349.125.707.12 1.066v6h2.02v-6.415a5.444 5.444 0 0 0-.377-2.19 2.591 2.591 0 0 0-1.129-1.264ZM46.673 25.554a3.597 3.597 0 0 0-1.457-1.115 5.108 5.108 0 0 0-2.011-.375 4.943 4.943 0 0 0-2.022.395c-.58.253-1.098.63-1.516 1.105a4.833 4.833 0 0 0-.952 1.707 7.106 7.106 0 0 0-.326 2.22 5.954 5.954 0 0 0 .584 2.754 3.866 3.866 0 0 0 1.734 1.718 6.183 6.183 0 0 0 2.815.582c.467.004.934-.026 1.397-.089a6.738 6.738 0 0 0 2.21-.72l.138-1.52c-.25.092-.505.184-.763.276a9.503 9.503 0 0 1-.803.247c-.28.073-.564.126-.852.157-.29.033-.58.05-.872.05a6.273 6.273 0 0 1-1.546-.168 2.543 2.543 0 0 1-1.1-.572c-.316-.3-.548-.678-.673-1.096a4.996 4.996 0 0 1-.217-1.302h7.163a7.532 7.532 0 0 0-.109-2.448 4.602 4.602 0 0 0-.822-1.806Zm-4.994.474a2.817 2.817 0 0 1 1.545-.405 2.43 2.43 0 0 1 1.526.444c.395.314.677.747.803 1.234.099.36.147.732.145 1.105h-5.213a4.88 4.88 0 0 1 .252-1.154c.17-.5.5-.931.942-1.224ZM55.304 32.758l-.337.06a2.99 2.99 0 0 1-.327.04c-.106.006-.205.009-.297.009a2.003 2.003 0 0 1-.882-.178 1.273 1.273 0 0 1-.565-.523 1.66 1.66 0 0 1-.198-.838V25.86h2.794l.218-1.579h-3.012v-3.119l-2.022.711v2.408H49.15l-.218 1.58h1.744v5.881c-.009.392.052.783.179 1.154.102.294.26.566.465.8.189.208.418.376.674.493.262.12.538.206.822.257.281.052.567.078.852.079.212 0 .42-.007.625-.02.205-.013.393-.033.565-.06.171-.026.334-.055.486-.088.151-.032.28-.062.386-.089l.119-1.638c-.077.03-.157.053-.238.07-.093.019-.195.039-.307.058ZM65.302 25.554a3.599 3.599 0 0 0-1.456-1.115 5.11 5.11 0 0 0-2.012-.375 4.947 4.947 0 0 0-2.021.395c-.581.253-1.099.63-1.517 1.105a4.833 4.833 0 0 0-.95 1.707 7.106 7.106 0 0 0-.327 2.22 5.958 5.958 0 0 0 .584 2.754 3.866 3.866 0 0 0 1.734 1.717 6.185 6.185 0 0 0 2.814.582c.468.004.934-.025 1.397-.088a6.75 6.75 0 0 0 2.21-.72l.14-1.52c-.252.091-.506.184-.764.276a9.545 9.545 0 0 1-.802.246 5.98 5.98 0 0 1-.853.158c-.29.033-.58.05-.872.05a6.28 6.28 0 0 1-1.546-.168 2.547 2.547 0 0 1-1.1-.572 2.498 2.498 0 0 1-.673-1.096 4.983 4.983 0 0 1-.216-1.303h7.162a7.525 7.525 0 0 0-.11-2.447 4.603 4.603 0 0 0-.822-1.806Zm-4.994.474a2.817 2.817 0 0 1 1.546-.405 2.431 2.431 0 0 1 1.526.444c.395.314.676.747.802 1.234.1.36.148.732.145 1.105h-5.212a4.89 4.89 0 0 1 .251-1.154c.17-.5.5-.931.942-1.224ZM72.853 24.212c-.371.099-.725.252-1.05.454-.339.21-.651.458-.932.74-.047.046-.092.099-.139.148v-1.47l-2.022.295v9.968h2.022V26.89a5.169 5.169 0 0 1 1.08-.576c.205-.08.413-.149.625-.207a4.229 4.229 0 0 1 1.387-.149l.238-1.855a3.785 3.785 0 0 0-1.21.109Z"/></svg>
